src/images/tours-tel-icon.svg

<svg width="40" height="40" viewBox="0 0 40 40" fill="none" xmlns="http://www.w3.org/2000/svg">
<path d="M16.3327 29.1667C15.6847 29.1667 15.7948 28.9221 15.5714 28.3051L13.666 22.0344L28.3327 13.3334" fill="#C8DAEA"/>
<path d="M16.332 29.1667C16.832 29.1667 17.0529 28.938 17.332 28.6667L19.9987 26.0737L16.6724 24.0679" fill="#A9C9DD"/>
<path d="M16.6725 24.0683L24.7325 30.0232C25.6523 30.5306 26.3161 30.2679 26.5452 29.1692L29.826 13.7087C30.1619 12.362 29.3127 11.7512 28.4328 12.1507L9.16782 19.5792C7.8528 20.1067 7.86047 20.8403 8.92812 21.1672L13.8719 22.7103L25.3174 15.4894C25.8578 15.1618 26.3537 15.3379 25.9466 15.6992" fill="url(#paint0_linear_229_635)"/>
<defs>
<linearGradient id="paint0_linear_229_635" x1="17.4956" y1="21.2285" x2="19.6325" y2="28.141" gradientUnits="userSpaceOnUse">
<stop stop-color="#EFF7FC"/>
<stop offset="1" stop-color="white"/>
</linearGradient>
</defs>
</svg>

<svg xmlns="http://www.w3.org/2000/svg" width="40" height="40" fill="none"><path fill="#C8DAEA" d="M16.333 29.167c-.648 0-.538-.245-.762-.862l-1.905-6.27 14.667-8.702"/><path fill="#A9C9DD" d="M16.332 29.167c.5 0 .72-.229 1-.5l2.667-2.593-3.327-2.006"/><path fill="url(#a)" d="m16.672 24.068 8.06 5.955c.92.508 1.584.245 1.813-.854l3.281-15.46c.336-1.347-.513-1.958-1.393-1.558L9.168 19.579c-1.315.528-1.308 1.261-.24 1.588l4.944 1.543 11.445-7.22c.54-.328 1.037-.152.63.21"/><defs><linearGradient id="a" x1="17.496" x2="19.633" y1="21.229" y2="28.141" gradientUnits="userSpaceOnUse"><stop stop-color="#EFF7FC"/><stop offset="1" stop-color="#fff"/></linearGradient></defs></svg>
